X:118
T:Padraigh O'Keefe's
R:jig
Z:Transcribed by Dave Marshall
M:6/8
K:D
|: ~B3 BAF | Add dBA | ~B3 BAF | AFE EFA |
~B3 BAF | Add dBA | ~G3 ~F3 |1 EDC DFA :|2 EDC D3 | 
| DFA d2g | fdf ecA | ~g3 fdB | AFA ~B3 |
Adf a2a | baf ~a3 | ~g3 fdB | AFA B2g |
fdd  d2g | fdf ecA | ~g3 fdB | AFA ~B3 |
Adf a2a | baf ~a3 | ~g3 fdB | AFA Bdc |
